src/images/RaverRobot.svg

<svg viewBox="0 0 77 124" fill="none" xmlns="http://www.w3.org/2000/svg">
  <path d="M0.999999 72.3913C1.00002 58 10.5002 54 24.1304 54L24.1304 58C6.50023 58.4873 6.21739 66.9873 6.21739 72.3913C6.21739 75.8696 0.999995 75.8696 0.999999 72.3913Z" fill="#202630" stroke="#202630" stroke-width="1.73913"/>
  <g id="RaverRobotLeftLeg" fill="#202630">
    <path d="M25 94H32V115H25z"/>
    <path d="M28.5 109C23.8056 109 19.9999 114.5 20 117.5C20.0001 120.5 37 120.5 37 117.5C37 114.5 33.1944 109 28.5 109Z"/>
  </g>
  <path d="M76.1305 72.3913C76.1305 58 66.6303 54 53.0001 54L53.0001 58C70.6303 58.4873 70.9131 66.9873 70.9131 72.3913C70.9131 75.8696 76.1305 75.8696 76.1305 72.3913Z" fill="#202630" stroke="#202630" stroke-width="1.73913"/>
  <path fill="#202630" d="M45 98H52V119H45zM30 45H47V50H30z"/>
  <path d="M18 60C18 54.4772 22.4772 50 28 50H49C54.5228 50 59 54.4772 59 60V89C59 94.5228 54.5228 99 49 99H28C22.4772 99 18 94.5228 18 89V60Z" fill="#E8686A"/>
  <rect x="51.47" y="66.8552" width="1.96678" height="2.8339" rx=".462772" fill="#202630" stroke="#202630" stroke-width=".115693"/>
  <rect x="51.47" y="63.4045" width="1.96678" height="2.8339" rx=".462772" fill="#202630" stroke="#202630" stroke-width=".115693"/>
  <rect x="48.8883" y="66.8552" width="1.96678" height="2.8339" rx=".462772" fill="#202630" stroke="#202630" stroke-width=".115693"/>
  <rect x="48.8883" y="63.4045" width="1.96678" height="2.8339" rx=".462772" fill="#202630" stroke="#202630" stroke-width=".115693"/>
  <rect x="46.3075" y="66.8552" width="1.96678" height="2.8339" rx=".462772" fill="#202630" stroke="#202630" stroke-width=".115693"/>
  <rect x="46.3075" y="63.4045" width="1.96678" height="2.8339" rx=".462772" fill="#202630" stroke="#202630" stroke-width=".115693"/>
  <rect x="43.7255" y="66.8552" width="1.96678" height="2.8339" rx=".462772" fill="#202630" stroke="#202630" stroke-width=".115693"/>
  <rect x="43.7255" y="63.4045" width="1.96678" height="2.8339" rx=".462772" fill="#202630" stroke="#202630" stroke-width=".115693"/>
  <rect x="41.1438" y="66.8552" width="1.96678" height="2.8339" rx=".462772" fill="#202630" stroke="#202630" stroke-width=".115693"/>
  <rect x="41.1438" y="63.4045" width="1.96678" height="2.8339" rx=".462772" fill="#202630" stroke="#202630" stroke-width=".115693"/>
  <rect x="42.4958" y="70.3042" width="1.96678" height="2.8339" rx=".462772" fill="#202630" stroke="#202630" stroke-width=".115693"/>
  <rect x="39.9149" y="70.3042" width="1.96678" height="2.8339" rx=".462772" fill="#202630" stroke="#202630" stroke-width=".115693"/>
  <rect x="37.825" y="63.4045" width="2.45848" height="6.28387" rx=".462772" fill="#202630" stroke="#202630" stroke-width=".115693"/>
  <rect x="36.2264" y="70.3042" width="1.96678" height="2.8339" rx=".462772" fill="#202630" stroke="#202630" stroke-width=".115693"/>
  <rect x="33.646" y="70.3042" width="1.96678" height="2.8339" rx=".462772" fill="#202630" stroke="#202630" stroke-width=".115693"/>
  <rect x="34.9985" y="66.8552" width="1.96678" height="2.8339" rx=".462772" fill="#202630" stroke="#202630" stroke-width=".115693"/>
  <rect x="34.9985" y="63.4045" width="1.96678" height="2.8339" rx=".462772" fill="#202630" stroke="#202630" stroke-width=".115693"/>
  <rect x="32.4164" y="66.8552" width="1.96678" height="2.8339" rx=".462772" fill="#202630" stroke="#202630" stroke-width=".115693"/>
  <rect x="32.4164" y="63.4045" width="1.96678" height="2.8339" rx=".462772" fill="#202630" stroke="#202630" stroke-width=".115693"/>
  <rect x="29.8356" y="66.8552" width="1.96678" height="2.8339" rx=".462772" fill="#202630" stroke="#202630" stroke-width=".115693"/>
  <rect x="29.8356" y="63.4045" width="1.96678" height="2.8339" rx=".462772" fill="#202630" stroke="#202630" stroke-width=".115693"/>
  <rect x="27.2535" y="66.8552" width="1.96678" height="2.8339" rx=".462772" fill="#202630" stroke="#202630" stroke-width=".115693"/>
  <rect x="27.2535" y="63.4045" width="1.96678" height="2.8339" rx=".462772" fill="#202630" stroke="#202630" stroke-width=".115693"/>
  <rect x="27.2534" y="60.9414" width="26.1828" height="1.8482" rx=".462772" fill="#202630" stroke="#202630" stroke-width=".115693"/>
  <path d="M47 3C39 3 37 8.5 37 14H40C40.2152 5 45 6 47 6V3Z" fill="#202630" stroke="#202630"/>
  <circle cx="49" cy="4" r="4" fill="#E8686A"/>
  <circle cx="50.5" cy="2.5" r="1.5" fill="#fff"/>
  <path d="M48.5 113C43.8056 113 39.9999 118.5 40 121.5 40.0001 124.5 57 124.5 57 121.5 57 118.5 53.1944 113 48.5 113ZM62 33C64.2091 33 66 31.2091 66 29 66 26.7909 64.2091 25 62 25V33ZM11 29C11 31.2091 12.7909 33 15 33V25C12.7909 25 11 26.7909 11 29Z" fill="#202630"/>
  <path d="M14 25.0954C14 18.9676 18.9676 14 25.0954 14H51.9046C58.0324 14 63 18.9676 63 25.0954V25.0954V33C63 39.6274 57.6274 45 51 45H26C19.3726 45 14 39.6274 14 33V25.0954V25.0954Z" fill="#E8686A"/>
  <path d="M20 25.224C20 22.3389 22.3389 20 25.224 20H51.776C54.6611 20 57 22.3389 57 25.224V25.224V31C57 35.4183 53.4183 39 49 39H28C23.5817 39 20 35.4183 20 31V25.224V25.224Z" fill="#fff"/>
  <path d="M45 27H49M29 27H33" stroke="#202630" stroke-width="2" stroke-linecap="round"/>
  <path d="M42.1923 33L35.7434 33C35.3132 33 34.9638 33.3488 34.9647 33.779C34.9689 35.6012 37.0261 37 38.9644 37C40.9027 37 42.9644 35.6665 42.9644 33.7721C42.9644 33.3457 42.6187 33 42.1923 33Z" fill="#202630"/>
</svg>

<svg viewBox="0 0 77 124" fill="none" xmlns="http://www.w3.org/2000/svg"><path d="M1 72.391C1 58 10.5 54 24.13 54v4C6.5 58.487 6.217 66.987 6.217 72.391c0 3.479-5.217 3.479-5.217 0ZM76.13 72.391C76.13 58 66.63 54 53 54v4c17.63.487 17.913 8.987 17.913 14.391 0 3.479 5.218 3.479 5.218 0Z" fill="#202630" stroke="#202630" stroke-width="1.739"/><path fill="#202630" d="M25 94h7v21h-7zM45 98h7v21h-7zM30 45h17v5H30z"/><path d="M18 60c0-5.523 4.477-10 10-10h21c5.523 0 10 4.477 10 10v29c0 5.523-4.477 10-10 10H28c-5.523 0-10-4.477-10-10V60Z" fill="#E8686A"/><rect x="51.47" y="66.855" width="1.967" height="2.834" rx=".463" fill="#202630" stroke="#202630" stroke-width=".116"/><rect x="51.47" y="63.404" width="1.967" height="2.834" rx=".463" fill="#202630" stroke="#202630" stroke-width=".116"/><rect x="48.888" y="66.855" width="1.967" height="2.834" rx=".463" fill="#202630" stroke="#202630" stroke-width=".116"/><rect x="48.888" y="63.404" width="1.967" height="2.834" rx=".463" fill="#202630" stroke="#202630" stroke-width=".116"/><rect x="46.307" y="66.855" width="1.967" height="2.834" rx=".463" fill="#202630" stroke="#202630" stroke-width=".116"/><rect x="46.307" y="63.404" width="1.967" height="2.834" rx=".463" fill="#202630" stroke="#202630" stroke-width=".116"/><rect x="43.725" y="66.855" width="1.967" height="2.834" rx=".463" fill="#202630" stroke="#202630" stroke-width=".116"/><rect x="43.725" y="63.404" width="1.967" height="2.834" rx=".463" fill="#202630" stroke="#202630" stroke-width=".116"/><rect x="41.144" y="66.855" width="1.967" height="2.834" rx=".463" fill="#202630" stroke="#202630" stroke-width=".116"/><rect x="41.144" y="63.404" width="1.967" height="2.834" rx=".463" fill="#202630" stroke="#202630" stroke-width=".116"/><rect x="42.496" y="70.304" width="1.967" height="2.834" rx=".463" fill="#202630" stroke="#202630" stroke-width=".116"/><rect x="39.915" y="70.304" width="1.967" height="2.834" rx=".463" fill="#202630" stroke="#202630" stroke-width=".116"/><rect x="37.825" y="63.404" width="2.458" height="6.284" rx=".463" fill="#202630" stroke="#202630" stroke-width=".116"/><rect x="36.226" y="70.304" width="1.967" height="2.834" rx=".463" fill="#202630" stroke="#202630" stroke-width=".116"/><rect x="33.646" y="70.304" width="1.967" height="2.834" rx=".463" fill="#202630" stroke="#202630" stroke-width=".116"/><rect x="34.998" y="66.855" width="1.967" height="2.834" rx=".463" fill="#202630" stroke="#202630" stroke-width=".116"/><rect x="34.998" y="63.404" width="1.967" height="2.834" rx=".463" fill="#202630" stroke="#202630" stroke-width=".116"/><rect x="32.416" y="66.855" width="1.967" height="2.834" rx=".463" fill="#202630" stroke="#202630" stroke-width=".116"/><rect x="32.416" y="63.404" width="1.967" height="2.834" rx=".463" fill="#202630" stroke="#202630" stroke-width=".116"/><rect x="29.836" y="66.855" width="1.967" height="2.834" rx=".463" fill="#202630" stroke="#202630" stroke-width=".116"/><rect x="29.836" y="63.404" width="1.967" height="2.834" rx=".463" fill="#202630" stroke="#202630" stroke-width=".116"/><rect x="27.253" y="66.855" width="1.967" height="2.834" rx=".463" fill="#202630" stroke="#202630" stroke-width=".116"/><rect x="27.253" y="63.404" width="1.967" height="2.834" rx=".463" fill="#202630" stroke="#202630" stroke-width=".116"/><rect x="27.253" y="60.941" width="26.183" height="1.848" rx=".463" fill="#202630" stroke="#202630" stroke-width=".116"/><path d="M47 3c-8 0-10 5.5-10 11h3c.215-9 5-8 7-8V3Z" fill="#202630" stroke="#202630"/><circle cx="49" cy="4" r="4" fill="#E8686A"/><circle cx="50.5" cy="2.5" r="1.5" fill="#fff"/><path d="M28.5 109c-4.694 0-8.5 5.5-8.5 8.5s17 3 17 0-3.806-8.5-8.5-8.5ZM48.5 113c-4.694 0-8.5 5.5-8.5 8.5s17 3 17 0-3.806-8.5-8.5-8.5ZM62 33a4 4 0 0 0 0-8v8ZM11 29a4 4 0 0 0 4 4v-8a4 4 0 0 0-4 4Z" fill="#202630"/><path d="M14 25.095C14 18.968 18.968 14 25.095 14h26.81C58.032 14 63 18.968 63 25.095V33c0 6.627-5.373 12-12 12H26c-6.627 0-12-5.373-12-12v-7.905Z" fill="#E8686A"/><path d="M20 25.224A5.224 5.224 0 0 1 25.224 20h26.552A5.224 5.224 0 0 1 57 25.224V31a8 8 0 0 1-8 8H28a8 8 0 0 1-8-8v-5.776Z" fill="#fff"/><path d="M45 27h4M29 27h4" stroke="#202630" stroke-width="2" stroke-linecap="round"/><path d="M42.192 33h-6.449c-.43 0-.78.349-.778.779.004 1.822 2.061 3.221 4 3.221 1.938 0 4-1.334 4-3.228a.772.772 0 0 0-.773-.772Z" fill="#202630"/></svg>
